X:1
T:Title
%%score ( 1 2 ) { ( 3 5 ) | 4 }
L:1/8
M:4/4
K:Ab
V:1 treble nm="Grand Piano"
V:2 treble 
V:3 bass nm="Grand Piano"
V:5 bass 
V:4 bass 
V:1
 z4 z2[Q:1/4=100] E2 | c3 c BA A>G | G6 E2 | d3 c cB B>A | c6 E2 | e3 e dcBA | GF A>B c2 E2 | %7
 B4- BE E>E |[M:7/8] A-A-A- A- A3 |[M:1/4] [CA]2 |[M:4/4] A4 .G2 z2 | G6 z2 | d3 d cc B>A | %13
 c-[Ec-][Ec-][Ec-] [Ec]2 z [_Ge] | [Fe]3 [DF] [DF]3 [Fd] | %15
[M:19/16] [Fd]/-[Fd]/-[Fd]-<[Fd][CE][CE]/-[CE]/-[CE]/-[CE]/-[CE]/-[CE]-<[CE]e | %16
[M:35/32] ecAFE[Ac][GB]-(3:2:4[GB]3/2-[GB]/4[EA]3/4-[EA]/8 |[M:3/4] [EA]6 |] %18
V:2
 x8 | x8 | x8 | x8 | x8 | x8 | x8 | x8 |[M:7/8] z CD D C3 |[M:1/4] x2 | %10
[M:4/4] C3- [CA] C-[C-G] [C-F]>[CF] | DDDD D2 [Ed]2 | E4 E4 | .E2 z2 z4 | x8 |[M:19/16] x19/2 | %16
[M:35/32] x35/4 |[M:3/4] x6 |] %18
V:3
 z8 | A,,E,CE, A,,E,CE, | B,,E,DE, DE,DE, | E,,E,DE, E,,E,DE, | A,,E,CE, CE,CE, | %5
 A,,E,CE, A,,E,CE, | D,A,DA, A,,E,CE, | E,,E,DE, E,,E,DE, |[M:7/8] z E,F, =E, _E,3 |[M:1/4] E,2 | %10
[M:4/4] E,4 E,4 | E,E,E,E, E,2 G,2 | G,4 G,4 | A,A,A,A, A,2 z C | A,3 A, A,3 A, | %15
[M:19/16] A,/-A,/-A,-<A,A,A,/-A,/-A,/-A,/-A,/-A,-<A,E | %16
[M:35/32] ECA,F, z ED-(3:2:4D3/2-D/4C3/4-C/8 |[M:3/4] C6 |] %18
V:4
 z8 | z2 .A,2 z2 .A,2 | z2 .G,2 .G,2 .G,2 | z2 .G,2 z2 .G,2 | z2 .A,2 .A,2 .A,2 | z2 .A,2 z2 .A,2 | %6
 z2 .F,2 z2 .A,2 | z2 .G,2 z2 .G,2 |[M:7/8] z7 |[M:1/4] A,,2 |[M:4/4] A,,4 A,,4 | %11
 B,,B,,B,,B,, B,,2 E,2 | E,4 E,4 | A,,A,,A,,A,, A,,2 z A, | D,3 D, D,3 D, | %15
[M:19/16] A,,/-A,,/-A,,-<A,,A,,A,,/-A,,/-A,,/-A,,/-A,,/-A,,-<A,, z | %16
[M:35/32] z3/2 z/4 z3/2 z/4 z3 z/ (3:2:4z3/2 z/4 A,,3/4-A,,/8 |[M:3/4] A,,6 |] %18
V:5
 x8 | x8 | x8 | x8 | x8 | x8 | x8 | x8 |[M:7/8] A,,-A,,-A,,- A,,- A,,3 |[M:1/4] x2 |[M:4/4] x8 | %11
 x8 | x8 | x8 | x8 |[M:19/16] x19/2 |[M:35/32] z4 E,4- E,/ z/4 |[M:3/4] x6 |] %18

